epam-assets/icon-sources/18/core skill alternative.svg

<svg width="18" height="18" viewBox="0 0 18 18" fill="none" xmlns="http://www.w3.org/2000/svg">
<g id="18/core skill alternative">
<path id="icon" d="M7.49203 15.75L8.24203 10.5H5.61703C5.42953 10.5 5.31378 10.45 5.26978 10.35C5.22628 10.25 5.25453 10.1125 5.35453 9.9375L9.74203 2.25H10.492L9.74203 7.5H12.367C12.5545 7.5 12.67 7.55 12.7135 7.65C12.7575 7.75 12.7295 7.8875 12.6295 8.0625L8.24203 15.75H7.49203Z" fill="#6C6F80"/>
</g>
</svg>

<svg xmlns="http://www.w3.org/2000/svg" width="18" height="18" fill="none" viewBox="0 0 18 18">
  <path fill="#6C6F80" d="m7.492 15.75.75-5.25H5.617c-.187 0-.303-.05-.347-.15-.044-.1-.015-.237.085-.412L9.742 2.25h.75l-.75 5.25h2.625c.188 0 .303.05.346.15.045.1.017.237-.083.412L8.242 15.75h-.75Z"/>
</svg>
